X:4789
T:Old Hag in the Kiln, The
T:Dinny Delaney's
O:england
M:12/8
E:10
R:single jig
K:DMix
A2D ~D3 A2G EFG|A2D ~D3 G2A GED|A2D ~D3 c2de2d|dcA AGE G2A GED:|
dcA AGE c3 ABc|dcA AGE G2A GED|dcA AGE c2de2d|dcA AGE G2A GED:|
A2 D~D3 A2B G2B|A2B G2A E2G EDD|A2D~D3 c2d e2d|dcA AGE G2A GED:|
dcA AGE c3 ABc|dcA AGE G2A GED|dcA AGE c2d e2d|dcA AGE G2A GED:|
